X: 5386
T: Bucks Of Oranmore, The
R: reel
M: 4/4
K: Emajor
|:B2GB B2ec|B2GB cFF2|1 B2GB B2ce|fage fece:|2 EFGA BGBc|efge fdec||
|:BE E2 BE cE|BEGB cFF2|1 BE E2 B2ce|fage fece:|2 EFGA BGBc|efge fgaf||
|:b2ge fece|Bege fece|1 b2ge fece|fage fece:|2 gbbg fgbg|efge fece||
|:gBeg fBef|gBeg fece|1 gBeg fBeg|(3fga ge fece:|2 gbbg fgbg|efge fece||
|:Bege fege|Bege fece|1 Bege fege|fage fece:|2 Bcef gegb|gbge fece||

